X: 6
T: Good Morning To Your Nightcap
R: reel
M: 4/4
L: 1/8
K: Ador
e4 d4 | cBcd edd2 | e=fec dedB | cA BG EGD2 |
e4 d4 | cBcd edd2 | eg fa gedB | cA BG EGD2 :||
EAAc BGGB | cBcd ed d2 | EAAc BGGB |cA BG EGD2 |
EAAc BGGB | cBcd ed d2 | eg fa gedB | cA BG EGD2 :||


Tune 513	Setting 513

